static/logos/maze-wordmark-color.svg

<svg width="100" height="19" viewBox="0 0 100 19" fill="none" xmlns="http://www.w3.org/2000/svg">
<g clip-path="url(#clip0_1_2050)">
<path fill-rule="evenodd" clip-rule="evenodd" d="M1.71854 16.1024C-0.572877 13.8304 -0.57284 10.1468 1.71861 7.87481L7.94229 1.704C9.87939 -0.216621 12.8339 -0.513658 15.0856 0.812893C15.7822 1.22321 15.7761 2.16446 15.2032 2.73246C14.6304 3.30046 13.6952 3.25157 12.9176 3.02608C11.9219 2.73733 10.8021 2.98227 10.0169 3.76091L3.79315 9.93168C2.64743 11.0677 2.64741 12.9095 3.79312 14.0455C4.93885 15.1815 6.79649 15.1815 7.94221 14.0455L20.3895 1.70408C22.681 -0.567905 26.3961 -0.567915 28.6876 1.70405L34.9114 7.87481C37.2028 10.1467 37.2028 13.8304 34.9114 16.1024C32.6199 18.3744 28.9047 18.3744 26.6132 16.1024L24.5387 14.0455L21.9455 16.6166C20.0084 18.5373 17.0539 18.8343 14.8021 17.5077C14.1056 17.0974 14.1117 16.1562 14.6846 15.5882C15.2574 15.0202 16.1925 15.069 16.9702 15.2945C17.9659 15.5833 19.0856 15.3383 19.8709 14.5597L22.5382 11.9151C23.6431 10.8197 25.4343 10.8197 26.5392 11.9151L28.6878 14.0455C29.8335 15.1814 31.6911 15.1814 32.8368 14.0455C33.9825 12.9095 33.9825 11.0677 32.8368 9.93168L26.6131 3.76098C25.4673 2.62499 23.6098 2.625 22.464 3.76099L10.0168 16.1024C7.72527 18.3744 4.01001 18.3744 1.71854 16.1024Z" fill="black"/>
<path d="M60.0654 3.29739C58.6236 3.29739 57.5312 3.8137 56.8103 4.84632C56.1768 3.8137 55.1719 3.29739 53.8393 3.29739C52.4629 3.29739 51.458 3.77068 50.8025 4.73875V3.59858H47.9844V14.355H50.8025V8.30985C50.8025 6.73945 51.6109 5.87894 52.8561 5.87894C54.014 5.87894 54.6912 6.63188 54.6912 7.92268V14.355H57.5094V8.30985C57.5094 6.73945 58.2522 5.87894 59.5412 5.87894C60.699 5.87894 61.3762 6.63188 61.3762 7.92268V14.355H64.1944V7.72901C64.1944 5.03994 62.5778 3.29739 60.0654 3.29739Z" fill="black"/>
<path d="M74.6743 4.86783C73.8223 3.8137 72.6426 3.29739 71.1134 3.29739C69.6496 3.29739 68.4045 3.85673 67.3558 4.95388C66.329 6.05103 65.8047 7.38484 65.8047 8.9768C65.8047 10.5687 66.329 11.924 67.3558 13.0212C68.4045 14.1183 69.6496 14.6562 71.1134 14.6562C72.6426 14.6562 73.8223 14.1399 74.6743 13.0857V14.355H77.4927V3.59858H74.6743V4.86783ZM69.4749 11.1711C68.9069 10.5902 68.6229 9.85878 68.6229 8.9768C68.6229 8.09474 68.9069 7.36332 69.4749 6.80399C70.0429 6.22314 70.7639 5.94347 71.6377 5.94347C72.5116 5.94347 73.2325 6.22314 73.8005 6.80399C74.3903 7.36332 74.6743 8.09474 74.6743 8.9768C74.6743 9.85878 74.3903 10.5902 73.8005 11.1711C73.2325 11.7305 72.5116 12.0101 71.6377 12.0101C70.7639 12.0101 70.0429 11.7305 69.4749 11.1711Z" fill="black"/>
<path d="M87.888 5.44867V3.59857H79.6956V6.20163H84.0865L79.4766 12.5049V14.355H88.1063V11.7519H83.256L87.888 5.44867Z" fill="black"/>
<path d="M99.8886 10.117C99.9543 9.70825 99.9978 9.34252 99.9978 8.9768C99.9978 7.36332 99.4741 6.02952 98.4253 4.93237C97.3985 3.83521 96.0657 3.29739 94.4711 3.29739C92.7886 3.29739 91.3909 3.83521 90.3199 4.93237C89.2497 6.00801 88.7031 7.36332 88.7031 8.9768C88.7031 10.6118 89.2497 11.9671 90.3421 13.0427C91.4344 14.1183 92.8764 14.6562 94.6894 14.6562C96.7863 14.6562 98.3818 13.8817 99.452 12.3543L97.1802 11.0635C96.6337 11.7734 95.8039 12.1392 94.7329 12.1392C93.0512 12.1392 92.0245 11.4723 91.6527 10.117H99.8886ZM91.6092 7.96565C91.9367 6.58886 92.9634 5.79288 94.4711 5.79288C95.7596 5.79288 96.852 6.50281 97.1802 7.96565H91.6092Z" fill="black"/>
</g>
<defs>
<clipPath id="clip0_1_2050">
<rect width="100" height="18.3206" fill="white"/>
</clipPath>
</defs>
</svg>

<svg xmlns="http://www.w3.org/2000/svg" width="336.842" height="64" fill="none" viewBox="0 0 100 19"><g fill="#000" clip-path="url(#a)"><path fill-rule="evenodd" d="M1.719 16.102a5.783 5.783 0 0 1 0-8.227l6.223-6.171C9.88-.216 12.834-.514 15.086.813c.696.41.69 1.351.117 1.92-.573.567-1.508.519-2.285.293a2.95 2.95 0 0 0-2.901.735L3.793 9.93a2.891 2.891 0 0 0 0 4.115 2.952 2.952 0 0 0 4.15 0L20.39 1.704a5.903 5.903 0 0 1 8.298 0l6.223 6.17a5.783 5.783 0 0 1 0 8.228 5.903 5.903 0 0 1-8.298 0l-2.074-2.056-2.594 2.57c-1.937 1.921-4.891 2.218-7.143.892-.696-.41-.69-1.352-.117-1.92.572-.568 1.507-.519 2.285-.293a2.95 2.95 0 0 0 2.9-.735l2.668-2.645a2.846 2.846 0 0 1 4.001 0l2.149 2.13a2.952 2.952 0 0 0 4.149 0 2.892 2.892 0 0 0 0-4.113L26.613 3.76a2.952 2.952 0 0 0-4.149 0L10.017 16.102a5.903 5.903 0 0 1-8.298 0Z" clip-rule="evenodd"/><path d="M60.065 3.297c-1.441 0-2.534.517-3.255 1.55-.633-1.033-1.638-1.55-2.97-1.55-1.377 0-2.382.474-3.038 1.442v-1.14h-2.818v10.756h2.819V8.31c0-1.57.808-2.431 2.053-2.431 1.158 0 1.835.753 1.835 2.044v6.432h2.818V8.31c0-1.57.743-2.431 2.032-2.431 1.158 0 1.835.753 1.835 2.044v6.432h2.818V7.729c0-2.69-1.616-4.432-4.129-4.432ZM74.674 4.868c-.852-1.054-2.031-1.57-3.56-1.57-1.464 0-2.71.559-3.758 1.656-1.027 1.097-1.551 2.43-1.551 4.023 0 1.592.524 2.947 1.55 4.044 1.05 1.097 2.295 1.635 3.758 1.635 1.53 0 2.71-.516 3.561-1.57v1.269h2.819V3.599h-2.819v1.269Zm-5.2 6.303c-.567-.58-.851-1.312-.851-2.194 0-.882.284-1.614.852-2.173.568-.58 1.289-.86 2.163-.86.874 0 1.594.28 2.162.86.59.56.874 1.29.874 2.173 0 .882-.284 1.613-.874 2.194-.567.56-1.288.84-2.162.84-.874 0-1.595-.28-2.163-.84ZM87.888 5.449v-1.85h-8.192v2.603h4.39l-4.61 6.303v1.85h8.63v-2.603h-4.85l4.632-6.303ZM99.889 10.117c.065-.409.109-.774.109-1.14 0-1.614-.524-2.947-1.573-4.045-1.026-1.097-2.36-1.635-3.954-1.635-1.682 0-3.08.538-4.151 1.635-1.07 1.076-1.617 2.431-1.617 4.045 0 1.635.547 2.99 1.64 4.066 1.091 1.075 2.533 1.613 4.346 1.613 2.097 0 3.693-.774 4.763-2.302l-2.272-1.29c-.546.71-1.376 1.075-2.447 1.075-1.682 0-2.709-.667-3.08-2.022h8.236Zm-8.28-2.151c.328-1.377 1.354-2.173 2.862-2.173 1.289 0 2.381.71 2.71 2.173h-5.572Z"/></g><defs><clipPath id="a"><path fill="#fff" d="M0 0h100v18.321H0z"/></clipPath></defs></svg>
